X:1
T:12 Lieder, 1786   (alternative title: Zwölf Lieder auf ihrer Reise in Musik gesetzt)
T:Aus Siegwart
T:3. Aus Siegwart
T:Maria Theresia von Paradis
T:12 Lieder, 1786 (Zwölf Lieder auf ihrer Reise in Musik gesetzt) 
T:Johannes Martin Miller
T:NOTE TO TRANSCRIBER: Please transcribe the notes as shown in the IMSLP edition, into the piano's Soprano clef stave shown on this template score. During review, any corrections will be made in the Soprano clef staves.  The reviewer will then copy the notes into the hidden Treble clef staves, reveal the Treble clef staves and delete the Soprano clef staves before the score is published to the  OpenScore Lieder Corpus. 
T:Creative Commons copyright waiver (CC0 1.0 Universal)
T:Creative Commons copyright waiver (CC0 1.0 Universal)
C:Maria Theresia von Paradis
Z:Johannes Martin Miller
Z:Creative Commons copyright waiver (CC0 1.0 Universal)
%%score 1 { 2 3 }
L:1/8
M:2/4
K:C
V:1 alto1 nm="Voice\n(Soprano clef)"
V:2 alto1 nm="\n\n\n\n\n\n\nPianoforte"
V:3 bass nm="Pianoforte"
V:1
"^A3" A,"^B3"B,"^C4" C"^D4"D |"^E4" E"^F4"F"^G4" G"^A4"A |"^B4" B"^C5"c"^D5" d"^E5"e | %3
w: |||
"^F5" f"^G5"g"^A5" a z |[K:F][M:4/4][Q:1/4=92]"^Andante" c2 cB BA Ac | cB BA G4 | A3 G GF EF | %7
w: |Wohl und * im- * mer *|wohl * dem * Mann,|der sein Lieb- * chen *|
 B3 A (A2 G2) | F2 F2 AG ^FG | c3 B{B} A2 GF | F2 F2 AG ^FG | c3 B A2 GF | f2 fe ed dc | cB BA B4 | %14
w: se- hen kann, *|der mit won- * ne- *|vol- len Küs- sen *|darf in sei- * nen *|Arm sie schlies- sen, *|wohl und * im- * mer *|wohl * dem * Mann,|
 d3 d cA BG | F2 G2{G} A4 | f2 fe ed dc | cB BA B4 | d3 d cA BG | F2 E2 F2 z2 | z8 | z8 | z8 | %23
w: der sein Lieb- * chen *|se- hen kann,|wohl und * im- * mer *|wohl * dem * Mann,|der sein Lieb- * chen *|se- hen kann.||||
 z8 |] %24
w: |
V:2
 z4 | z4 | z4 | z4 |[K:F][M:4/4]"^\n(Soprano clef)\n" [Ac]2 [Ac][GB] z2 z2 | z8 | z8 | [GB]3 z z4 | %8
 z8 | z8 | [A,F]C z z z z z z | z8 | z8 | [Ac][GB] z2 z4 | z8 | z8 | [df]2 z2 z4 | z8 | z8 | z8 | %20
 cBBG z4 | z8 | z8 | z8 |] %24
V:3
 z4 | z4 | z4 | z4 |[K:F][M:4/4]"^(Bass clef)" F,,F,F,,F, z4 | z8 | z8 | C,,C,C,,C, z4 | z8 | z8 | %10
 [F,,F,]2 z2 z2 z2 | z8 |[K:alto1] z8 |[K:bass] [A,C][G,B,] z2 z4 | z8 | z8 | %16
[K:alto1] [DF]2 z2 z4 |[K:bass] z8 | z8 | z8 | C,,C,C,,C, z4 | z8 | z8 | z8 |] %24

